src/breeze-plus/apps/48/lunarclient.svg

<?xml version="1.0" encoding="UTF-8" standalone="no"?>
<!-- Created with Inkscape (http://www.inkscape.org/) -->

<svg
   width="48"
   height="48"
   viewBox="0 0 48 48"
   version="1.1"
   id="svg5"
   inkscape:version="1.2.2 (b0a8486541, 2022-12-01)"
   sodipodi:docname="lunarclient.svg"
   xmlns:inkscape="http://www.inkscape.org/namespaces/inkscape"
   xmlns:sodipodi="http://sodipodi.sourceforge.net/DTD/sodipodi-0.dtd"
   xmlns:xlink="http://www.w3.org/1999/xlink"
   xmlns="http://www.w3.org/2000/svg"
   xmlns:svg="http://www.w3.org/2000/svg">
  <sodipodi:namedview
     id="namedview7"
     pagecolor="#ffffff"
     bordercolor="#000000"
     borderopacity="0.25"
     inkscape:showpageshadow="2"
     inkscape:pageopacity="0.0"
     inkscape:pagecheckerboard="0"
     inkscape:deskcolor="#d1d1d1"
     inkscape:document-units="px"
     showgrid="false"
     inkscape:zoom="16.895833"
     inkscape:cx="24.059187"
     inkscape:cy="24.059187"
     inkscape:window-width="1920"
     inkscape:window-height="1008"
     inkscape:window-x="0"
     inkscape:window-y="0"
     inkscape:window-maximized="1"
     inkscape:current-layer="layer1" />
  <defs
     id="defs2">
    <linearGradient
       inkscape:collect="always"
       id="linearGradient2111">
      <stop
         style="stop-color:#000000;stop-opacity:1;"
         offset="0"
         id="stop2107" />
      <stop
         style="stop-color:#000000;stop-opacity:0;"
         offset="1"
         id="stop2109" />
    </linearGradient>
    <linearGradient
       inkscape:collect="always"
       id="linearGradient1228">
      <stop
         style="stop-color:#484848;stop-opacity:1;"
         offset="0"
         id="stop1224" />
      <stop
         style="stop-color:#5e5e5e;stop-opacity:1;"
         offset="1"
         id="stop1226" />
    </linearGradient>
    <linearGradient
       inkscape:collect="always"
       xlink:href="#linearGradient1228"
       id="linearGradient1230"
       x1="42"
       y1="44"
       x2="24"
       y2="4"
       gradientUnits="userSpaceOnUse" />
    <linearGradient
       inkscape:collect="always"
       xlink:href="#linearGradient2111"
       id="linearGradient2113"
       x1="24"
       y1="4"
       x2="49.2799"
       y2="27.683723"
       gradientUnits="userSpaceOnUse" />
  </defs>
  <g
     inkscape:label="레이어 1"
     inkscape:groupmode="layer"
     id="layer1">
    <path
       id="rect616"
       style="fill:url(#linearGradient1230);fill-opacity:1"
       d="M 24,4 6,14 V 34 L 24,44 42,34 V 14 Z"
       sodipodi:nodetypes="ccccccc" />
    <path
       id="path1358"
       style="fill:url(#linearGradient2113);fill-opacity:1;opacity:0.3"
       d="m 24,11 c -0.1656,-2e-4 -0.328711,0.04074 -0.474609,0.119141 0,0 -1.258697,-0.243971 -4.525391,1.640625 -1.633296,0.942298 -3.266827,1.91397 -4.515625,2.730468 -0.624398,0.4083 -1.150989,0.775463 -1.554687,1.101563 -0.2019,0.1631 -0.371044,0.312128 -0.527344,0.486328 C 12.246144,17.252425 12.09933,17.404023 12,18 l -2,12 1,1 H 9 v 0.5 L 9.5,32 H 9 v 0.5 L 16.125,39.625 24,44 42,34 V 21.474609 l -4.523438,-4.523437 c -0.122698,-0.1227 -0.25525,-0.237375 -0.40625,-0.359375 -0.403698,-0.3261 -2.930289,-0.693263 -3.554687,-1.101563 C 32.266827,14.673736 30.633296,13.702064 29,12.759766 25.733306,10.87517 24.474609,11.119141 24.474609,11.119141 24.328711,11.040741 24.1656,10.9998 24,11 Z"
       sodipodi:nodetypes="ccccccsccccccccccccccccc" />
    <path
       id="path1289"
       style="fill:#000000;fill-opacity:1;opacity:0.2"
       d="M 6 33 L 6 34 L 24 44 L 42 34 L 42 33 L 24 43 L 6 33 z " />
    <path
       d="m 24,9.0000007 c -0.165628,-2e-4 -0.328712,0.04074 -0.474609,0.11914 0,0 -3.258734,1.7560163 -6.525391,3.6406263 -1.633328,0.942304 -3.26681,1.913936 -4.515625,2.730468 -0.624407,0.408267 -1.150933,0.775452 -1.554687,1.101563 -0.201878,0.163055 -0.37111,0.312067 -0.527344,0.486328 C 10.24611,17.252387 10,17.395836 10,18.000001 v 12 h 2 V 18.314454 c 0.0537,-0.05071 0.09044,-0.08958 0.1875,-0.167969 0.307181,-0.248106 0.796285,-0.591862 1.390625,-0.980468 1.188681,-0.777215 2.80521,-1.74309 4.421875,-2.675782 2.996509,-1.728755 5.576155,-3.116841 6,-3.345703 0.423845,0.228862 3.003491,1.616948 6,3.345703 1.616665,0.932692 3.233194,1.898567 4.421875,2.675782 0.59434,0.388606 1.083444,0.732362 1.390625,0.980468 0.09706,0.07839 0.133803,0.11726 0.1875,0.167969 v 11.685547 h 2 v -12 C 38,17.395836 37.75389,17.252387 37.597656,17.078126 37.441422,16.903865 37.27219,16.754853 37.070312,16.591798 36.666558,16.265687 36.140032,15.898502 35.515625,15.490235 34.26681,14.673703 32.633328,13.702071 31,12.759767 27.733343,10.875157 24.474609,9.1191407 24.474609,9.1191407 24.328712,9.0407407 24.165628,8.9998007 24,9.0000007 Z m -0.486328,3.7460943 -0.265625,0.486328 -0.484375,0.263672 0.484375,0.265625 0.265625,0.484375 0.263672,-0.484375 0.486328,-0.265625 -0.486328,-0.263672 z m -2.865234,1.902344 C 17.236666,16.017435 15.000451,19.323816 15,23.000001 c 0.0083,3.378776 1.908281,6.468265 4.919922,8 H 9 v 0.5 h 3 v 0.5 H 9 v 0.5 h 5 v 0.5 h -4 v 0.5 h 6 v 0.5 h -3 v 0.5 h 7 v 0.5 h -1 v 0.5 h 10 v -0.5 h -1 v -0.5 h 7 v -0.5 h -3 v -0.5 h 6 v -0.5 h -3 v -0.5 h 4 v -0.5 h -3 v -0.5 h 3 v -0.5 H 28.080078 c 1.938384,-0.982908 3.455619,-2.634039 4.271484,-4.648438 C 31.285973,26.779545 30.148325,26.99965 29,27.000001 c -4.970563,0 -9,-4.029437 -9,-9 3.51e-4,-1.148325 0.220456,-2.285973 0.648438,-3.351562 z m 9.861328,2.046874 -0.265625,0.486329 -0.484375,0.263671 0.484375,0.265626 0.265625,0.484374 0.265625,-0.484374 0.484375,-0.265626 -0.484375,-0.263671 z m -8.017578,0.847657 -0.353516,0.646484 -0.646484,0.353516 0.646484,0.353515 0.353516,0.646485 0.353515,-0.646485 0.646485,-0.353515 -0.646485,-0.353516 z m -8.091797,0.257812 -0.265625,0.484375 -0.484375,0.265625 0.484375,0.263672 0.265625,0.486328 0.265625,-0.486328 0.484375,-0.263672 -0.484375,-0.265625 z m 12.003906,1.953125 -0.265625,0.484375 -0.484375,0.265625 0.484375,0.265625 0.265625,0.484375 0.265625,-0.484375 0.484375,-0.265625 -0.484375,-0.265625 z M 32.5,21.000001 31.96875,21.968751 31,22.500001 31.96875,23.031251 32.5,24.000001 33.03125,23.031251 34,22.500001 33.03125,21.968751 Z m -5,1.5 -0.353516,0.646484 L 26.5,23.500001 27.146484,23.853517 27.5,24.500001 27.853516,23.853517 28.5,23.500001 27.853516,23.146485 Z M 14.53125,26.031251 14,27.000001 13.03125,27.531251 14,28.060548 l 0.53125,0.970703 0.529297,-0.970703 0.970703,-0.529297 -0.970703,-0.53125 z"
       style="fill:#ffffff"
       id="path409" />
  </g>
</svg>

<?xml version="1.0" encoding="UTF-8" standalone="no"?>
<!-- Created with Inkscape (http://www.inkscape.org/) -->

<svg
   width="48"
   height="48"
   viewBox="0 0 48 48"
   version="1.1"
   id="svg5"
   inkscape:version="1.4.4 (dcaf3e7d9e, 2026-05-05)"
   sodipodi:docname="lunarclient.svg"
   xmlns:inkscape="http://www.inkscape.org/namespaces/inkscape"
   xmlns:sodipodi="http://sodipodi.sourceforge.net/DTD/sodipodi-0.dtd"
   xmlns:xlink="http://www.w3.org/1999/xlink"
   xmlns="http://www.w3.org/2000/svg"
   xmlns:svg="http://www.w3.org/2000/svg">
  <sodipodi:namedview
     id="namedview7"
     pagecolor="#ffffff"
     bordercolor="#000000"
     borderopacity="0.25"
     inkscape:showpageshadow="2"
     inkscape:pageopacity="0.0"
     inkscape:pagecheckerboard="0"
     inkscape:deskcolor="#d1d1d1"
     inkscape:document-units="px"
     showgrid="false"
     inkscape:zoom="16.666667"
     inkscape:cx="23.97"
     inkscape:cy="24"
     inkscape:window-width="1920"
     inkscape:window-height="1008"
     inkscape:window-x="0"
     inkscape:window-y="0"
     inkscape:window-maximized="1"
     inkscape:current-layer="layer1" />
  <defs
     id="defs2">
    <linearGradient
       inkscape:collect="always"
       id="linearGradient2111">
      <stop
         style="stop-color:#000000;stop-opacity:1;"
         offset="0"
         id="stop2107" />
      <stop
         style="stop-color:#000000;stop-opacity:0;"
         offset="1"
         id="stop2109" />
    </linearGradient>
    <linearGradient
       inkscape:collect="always"
       id="linearGradient1228">
      <stop
         style="stop-color:#484848;stop-opacity:1;"
         offset="0"
         id="stop1224" />
      <stop
         style="stop-color:#5e5e5e;stop-opacity:1;"
         offset="1"
         id="stop1226" />
    </linearGradient>
    <linearGradient
       inkscape:collect="always"
       xlink:href="#linearGradient2111"
       id="linearGradient2113"
       x1="24"
       y1="4"
       x2="49.2799"
       y2="27.683723"
       gradientUnits="userSpaceOnUse" />
    <linearGradient
       inkscape:collect="always"
       xlink:href="#linearGradient1228"
       id="linearGradient2"
       x1="44"
       y1="44"
       x2="24"
       y2="4"
       gradientUnits="userSpaceOnUse" />
  </defs>
  <g
     inkscape:label="레이어 1"
     inkscape:groupmode="layer"
     id="layer1">
    <rect
       style="fill:url(#linearGradient2)"
       id="rect1"
       width="40"
       height="40"
       x="4"
       y="4"
       ry="4" />
    <path
       id="path1358"
       style="opacity:0.3;fill:url(#linearGradient2113);fill-opacity:1"
       d="M 24 11 C 23.8344 10.9998 23.671289 11.04074 23.525391 11.119141 C 23.525391 11.119141 22.266694 10.87517 19 12.759766 C 17.366704 13.702064 15.733173 14.673736 14.484375 15.490234 C 13.859977 15.898534 13.333386 16.265697 12.929688 16.591797 C 12.727787 16.754897 12.558644 16.903925 12.402344 17.078125 C 12.246144 17.252425 12.09933 17.404023 12 18 L 10 30 L 11 31 L 9 31 L 9 31.5 L 9.5 32 L 9 32 L 9 32.5 L 16.125 39.625 L 20.392578 44 L 40 44 C 42.216 44 44 42.216 44 40 L 44 23.474609 L 37.476562 16.951172 C 37.353865 16.828472 37.221313 16.713797 37.070312 16.591797 C 36.666615 16.265697 34.140023 15.898534 33.515625 15.490234 C 32.266827 14.673736 30.633296 13.702064 29 12.759766 C 25.733306 10.87517 24.474609 11.119141 24.474609 11.119141 C 24.328711 11.040741 24.1656 10.9998 24 11 z " />
    <path
       d="m 24,9.0000007 c -0.165628,-2e-4 -0.328712,0.04074 -0.474609,0.11914 0,0 -3.258734,1.7560163 -6.525391,3.6406263 -1.633328,0.942304 -3.26681,1.913936 -4.515625,2.730468 -0.624407,0.408267 -1.150933,0.775452 -1.554687,1.101563 -0.201878,0.163055 -0.37111,0.312067 -0.527344,0.486328 C 10.24611,17.252387 10,17.395836 10,18.000001 v 12 h 2 V 18.314454 c 0.0537,-0.05071 0.09044,-0.08958 0.1875,-0.167969 0.307181,-0.248106 0.796285,-0.591862 1.390625,-0.980468 1.188681,-0.777215 2.80521,-1.74309 4.421875,-2.675782 2.996509,-1.728755 5.576155,-3.116841 6,-3.345703 0.423845,0.228862 3.003491,1.616948 6,3.345703 1.616665,0.932692 3.233194,1.898567 4.421875,2.675782 0.59434,0.388606 1.083444,0.732362 1.390625,0.980468 0.09706,0.07839 0.133803,0.11726 0.1875,0.167969 v 11.685547 h 2 v -12 C 38,17.395836 37.75389,17.252387 37.597656,17.078126 37.441422,16.903865 37.27219,16.754853 37.070312,16.591798 36.666558,16.265687 36.140032,15.898502 35.515625,15.490235 34.26681,14.673703 32.633328,13.702071 31,12.759767 27.733343,10.875157 24.474609,9.1191407 24.474609,9.1191407 24.328712,9.0407407 24.165628,8.9998007 24,9.0000007 Z m -0.486328,3.7460943 -0.265625,0.486328 -0.484375,0.263672 0.484375,0.265625 0.265625,0.484375 0.263672,-0.484375 0.486328,-0.265625 -0.486328,-0.263672 z m -2.865234,1.902344 C 17.236666,16.017435 15.000451,19.323816 15,23.000001 c 0.0083,3.378776 1.908281,6.468265 4.919922,8 H 9 v 0.5 h 3 v 0.5 H 9 v 0.5 h 5 v 0.5 h -4 v 0.5 h 6 v 0.5 h -3 v 0.5 h 7 v 0.5 h -1 v 0.5 h 10 v -0.5 h -1 v -0.5 h 7 v -0.5 h -3 v -0.5 h 6 v -0.5 h -3 v -0.5 h 4 v -0.5 h -3 v -0.5 h 3 v -0.5 H 28.080078 c 1.938384,-0.982908 3.455619,-2.634039 4.271484,-4.648438 C 31.285973,26.779545 30.148325,26.99965 29,27.000001 c -4.970563,0 -9,-4.029437 -9,-9 3.51e-4,-1.148325 0.220456,-2.285973 0.648438,-3.351562 z m 9.861328,2.046874 -0.265625,0.486329 -0.484375,0.263671 0.484375,0.265626 0.265625,0.484374 0.265625,-0.484374 0.484375,-0.265626 -0.484375,-0.263671 z m -8.017578,0.847657 -0.353516,0.646484 -0.646484,0.353516 0.646484,0.353515 0.353516,0.646485 0.353515,-0.646485 0.646485,-0.353515 -0.646485,-0.353516 z m -8.091797,0.257812 -0.265625,0.484375 -0.484375,0.265625 0.484375,0.263672 0.265625,0.486328 0.265625,-0.486328 0.484375,-0.263672 -0.484375,-0.265625 z m 12.003906,1.953125 -0.265625,0.484375 -0.484375,0.265625 0.484375,0.265625 0.265625,0.484375 0.265625,-0.484375 0.484375,-0.265625 -0.484375,-0.265625 z M 32.5,21.000001 31.96875,21.968751 31,22.500001 31.96875,23.031251 32.5,24.000001 33.03125,23.031251 34,22.500001 33.03125,21.968751 Z m -5,1.5 -0.353516,0.646484 L 26.5,23.500001 27.146484,23.853517 27.5,24.500001 27.853516,23.853517 28.5,23.500001 27.853516,23.146485 Z M 14.53125,26.031251 14,27.000001 13.03125,27.531251 14,28.060548 l 0.53125,0.970703 0.529297,-0.970703 0.970703,-0.529297 -0.970703,-0.53125 z"
       style="fill:#ffffff"
       id="path409" />
    <path
       id="rect2"
       style="fill:#000000;opacity:0.2"
       d="M 4 39 L 4 40 C 4 42.216 5.784 44 8 44 L 40 44 C 42.216 44 44 42.216 44 40 L 44 39 C 44 41.216 42.216 43 40 43 L 8 43 C 5.784 43 4 41.216 4 39 z " />
  </g>
</svg>
